X: 19
M:6/8
L:1/8
K:G
dc|:B2 G AFD|B2 G AFD|DGG AGF|DGG Adc|
|BdB cAc|BdB AFD|g2 g gdg|gag fdc|

